X:1
T:Quasi adagio
T:29-Pentatonic Tune
T:Béla Bartók Revised and Arranged by the Composer, January 1945 
T:Book 1 (after Hungarian Folksongs)
T:For Children Nr 29 , Sz 42
C:Bela bartok
%%score { 1 | 2 }
L:1/8
Q:1/4=138
M:2/4
K:C
V:1 bass nm="Piano"
V:2 bass 
V:1
"^Allegro scherzando,"!p! !tenuto!!2!E,2 .!2!E,.!1!D, | !^!E,4 | %2
{/!4!G,} .!2!E,!<(!.!2!E,.!2!E,.!1!D, | !^!E,4!<)! |{/!4!G,} .!2!E,.!2!E,.!2!E,.D, | %5
!>(!{/G,} .E,.E,.E,.D, |[Q:1/4=128]"^poco rit." z4!>)! |[Q:1/4=118]"^T" z4 | %8
[K:treble]!p! z[Q:1/4=138]"^a tempo" .[GBd]z.[GBd] | z .[GBd]z.[GBd] | z .[GBd]z.!1!!4!!5![^Fcd] | %11
 z .[GBd]z.[GBd] | z .[GBd]z.[GBd] | z .[GBd]z.[GBd] |!>(! z .!1!!2!!4![GBd]z.[GBe] | %15
 z .[GBe]z!>)!.[GBe] |!p! !tenuto!!2!e2 .!2!e.d | !^!e4 |{/!4!a} .!3!g.!1!e.!2!e.!1!d | !^!!2!e4 | %20
{/!4!a} .!3!g.!1!e!>(!.!2!e.!1!d |{/a} .g.e.e.d |[Q:1/4=128]"^poco rit."{/a} .g.e.e.d!>)! | %23
[Q:1/4=118]"^T"{/a} .g.e.e.d |[Q:1/4=138]"^a tempo"{/!2!a} .!1!g!p!.!1!!2!!4![GBd].[GBd].[GBd] | %25
 .[GBd].[GBd].[GBd].[GBd] | .[GBd].[GBd].!1!!3!!4![^Fcd].[Fcd] | .[GBd].[GBd].[GBd].[GBd] | %28
{/!2!a} .!1!g!p!.!1!!2!!4![GBd].[GBd].[GBd] | .[GBd].[GBd].[GBd].[GBd] | %30
[Q:1/4=128]"^poco rit." .[GBd].!1!!2!!5![GBe].[GBe].[GBe] | %31
[Q:1/4=118]"^T" .[GBe].[GBe].[GBe].[GBe] |[Q:1/4=138]"^a tempo"!pp! !tenuto!!2!e'2 .!2!e'.d' | %33
 !^!e'4 |{/!4!a'} .!3!g'.e'.!2!e'.d' | !^!e'4 |{/!4!a'} .!3!g'.e'.!2!e'.d' |{/a'} .g'.e'.e'.d' | %38
{/a'} .g'.e'.e'.d' |{/a'} .g'.e'.e'.d' | z4 | z4 |!pp!{/a'} .g'.e'.e'.d' | z4 | z4 | %45
!pp!{/!4!g'} .!2!e'.!1!d'.!2!d'.!1!b | z4 | z4 |!pp!{/!4!e'} .!3!d'.!1!b.!3!b.!2!a | %49
[Q:1/4=128]"^poco rit." z4 |[Q:1/4=118]"^T" z4 | %51
[Q:1/4=138]"^a tempo"{/!4!d'} .!2!b.!1!g.!2!g.!1!e | z4 |[K:bass]{/!4!D} .!2!B,.!1!G,.!2!G,.!1!E, | %54
"^(non rit.)" z4 | z4 |] %56
V:2
 !tenuto!!2!E,,2 .!2!E,,.!3!D,, | !^!E,,4 |{/!1!G,,} .!1!E,,.!2!E,,.!2!E,,.!3!D,, | !^!E,,4 | %4
{/G,,} .!2!E,,.!2!E,,.!2!E,,.D,, |{/G,,} .E,,.E,,.E,,.D,, |{/G,,} .E,,.E,,.E,,.D,, | %7
{/G,,} .E,,.E,,.E,,.D,, |"_un poco marcato il tema" .!2!G,.!2!G,.!2!G,.!5!D, | %9
 !tenuto!G,2 !tenuto!A,2 | .!2!B,.!4!G,.B,.!2!A, | !tenuto!!4!G,2 !tenuto!!3!G,2 | %12
 .!2!G,.!2!G,.!2!G,.!5!D, | !tenuto!!3!G,2 !tenuto!A,2 | .!1!B,.!3!G,.!2!A,.G, | %15
 !tenuto!!5!E,2 !tenuto!!5!E,2 |[K:treble] !tenuto!!2!E2 .!2!E.!3!D | !^!!2!E4 | %18
{/!1!A} .!2!G.!4!E.!3!E.!4!D | !^!E4 |{/!1!A} .G.E.!3!E.D |{/!1!A} .G.E.!3!E.D | z4 | z4 | %24
[K:bass]!mp! .!2!G,,.!2!G,,.!2!G,,.!5!D,, | !tenuto!G,,2 !tenuto!A,,2 | .!2!B,,.!4!G,,.B,,.A,, | %27
 !tenuto!!4!G,,2 !tenuto!!3!G,,2 | .!2!G,,.!2!G,,.!2!G,,.!5!D,, | !tenuto!!3!G,,2 !tenuto!!2!A,,2 | %30
 .B,,.G,,.A,,.G,, | !tenuto!!5!E,,2 !tenuto!!5!E,,2 |!8vb(! !tenuto!!2!E,,,2 .!2!E,,,.D,,, | %33
 !^!E,,,4 |{/!1!A,,,} .!2!G,,,.!4!E,,,.!3!E,,,.D,,, | !^!E,,,4 | %36
{/!1!A,,,} .!2!G,,,.!4!E,,,.!3!E,,,.D,,,!8vb)! | z4 |{/!1!A,,} .!2!G,,.!4!E,,.!3!E,,.D,, | z4 | %40
[K:treble]!p! .!2!G.!2!G.!2!G.!5!D | !tenuto!!2!G2 !tenuto!!1!A2 | %42
[K:bass]{/A,} .!2!G,.!4!E,.!3!E,.D, |[K:treble]!p! .!1!B.!3!G.!1!B.!2!A | %44
 !tenuto!!3!G2 !tenuto!!3!G2 |[K:bass]{/!1!G,} .!2!E,.!3!D,.!2!D,.!4!B,, | %46
[K:treble]!p! .!2!G.!2!G.!2!G.!5!D | !tenuto!G2 !tenuto!A2 | %48
[K:bass]{/!1!E,} .!2!D,.!4!B,,.!2!B,,.!3!A,, |[K:treble]!p! .!1!B.!3!G.A.G | %50
 !tenuto!!5!E2 !tenuto!!3!E2 | z4 |{/!1!d} .!2!B.!4!G.!3!G.!5!E | z4 | %54
[K:bass]!<(!{/!1!D,} .!2!B,,.!4!G,,.!2!G,,.!5!D,, | !tenuto!!3!E,,2!mf! !tenuto!!3!E,,2!<)! |] %56

